img/card front.svg

<svg width="60" height="57" viewBox="0 0 60 57" fill="none" xmlns="http://www.w3.org/2000/svg">
<path d="M22.63 23H16.5V18H11.5V23H5.87C3.46 23 1 24.68 1 26.74V30H27V26.32C27 24.48 24.77 23 22.63 23Z" fill="#FFF35F" stroke="#54596E" stroke-width="2" stroke-linecap="round" stroke-linejoin="round"/>
<path d="M23.0001 14.5L23.5001 8.4C23.5594 6.49886 22.8619 4.65186 21.5608 3.26446C20.2596 1.87707 18.4611 1.06265 16.5601 1H11.4401C9.53904 1.06265 7.74054 1.87707 6.43939 3.26446C5.13824 4.65186 4.44076 6.49886 4.50008 8.4L5.00008 14.5" fill="#BFAD88"/>
<path d="M23.0001 14.5L23.5001 8.4C23.5594 6.49886 22.8619 4.65186 21.5608 3.26446C20.2596 1.87707 18.4611 1.06265 16.5601 1H11.4401C9.53904 1.06265 7.74054 1.87707 6.43939 3.26446C5.13824 4.65186 4.44076 6.49886 4.50008 8.4L5.00008 14.5" stroke="#54596E" stroke-width="2" stroke-linecap="round" stroke-linejoin="round"/>
<path d="M10.68 9.94012C5.68 9.94012 5 5.61012 5 10.4201V14.4201C5.13581 16.9912 6.10459 19.4482 7.76 21.4201C8.55773 22.268 9.52666 22.9365 10.6025 23.3813C11.6783 23.8261 12.8364 24.0371 14 24.0001C15.1576 24.0473 16.3121 23.8489 17.3876 23.418C18.4631 22.9872 19.4352 22.3335 20.24 21.5001C21.8954 19.5282 22.8642 17.0712 23 14.5001V10.5001C23 5.61012 15.65 9.94012 10.68 9.94012Z" fill="#FFD578" stroke="#54596E" stroke-width="2" stroke-linecap="round" stroke-linejoin="round"/>
<path d="M57.74 27H14.26C13.5641 27 13 27.5641 13 28.26V54.74C13 55.4359 13.5641 56 14.26 56H57.74C58.4359 56 59 55.4359 59 54.74V28.26C59 27.5641 58.4359 27 57.74 27Z" fill="#A1B7FF" stroke="#54596E" stroke-width="2" stroke-linecap="round" stroke-linejoin="round"/>
<path d="M51.57 46.1401C51.0814 46.1428 50.5991 46.2504 50.1557 46.4557C49.7123 46.661 49.3181 46.9592 49 47.3301C48.5423 46.8014 47.9338 46.4252 47.2562 46.252C46.5786 46.0788 45.8642 46.1169 45.2089 46.3611C44.5535 46.6054 43.9885 47.0442 43.5896 47.6186C43.1906 48.1931 42.9768 48.8757 42.9768 49.5751C42.9768 50.2745 43.1906 50.9572 43.5896 51.5317C43.9885 52.1061 44.5535 52.5449 45.2089 52.7891C45.8642 53.0334 46.5786 53.0715 47.2562 52.8983C47.9338 52.7251 48.5423 52.3489 49 51.8201C49.3766 52.2512 49.8554 52.5809 50.3925 52.7789C50.9295 52.977 51.5077 53.037 52.074 52.9536C52.6403 52.8702 53.1766 52.646 53.6338 52.3016C54.0909 51.9571 54.4543 51.5034 54.6906 50.982C54.9269 50.4607 55.0286 49.8883 54.9863 49.3175C54.944 48.7467 54.7592 48.1955 54.4486 47.7147C54.1381 47.2339 53.7118 46.8386 53.2089 46.5653C52.7059 46.2919 52.1425 46.1492 51.57 46.1501V46.1401Z" fill="#DFDFDF"/>
<path d="M20.92 31H19.08C17.9312 31 17 31.9312 17 33.08V34.92C17 36.0688 17.9312 37 19.08 37H20.92C22.0688 37 23 36.0688 23 34.92V33.08C23 31.9312 22.0688 31 20.92 31Z" fill="#FFD578"/>
<path d="M18 47H29" stroke="#54596E" stroke-width="2" stroke-linejoin="round"/>
<path d="M18 42H24" stroke="#54596E" stroke-width="2" stroke-linejoin="round"/>
<path d="M27 42H33" stroke="#54596E" stroke-width="2" stroke-linejoin="round"/>
<path d="M36 42H42" stroke="#54596E" stroke-width="2" stroke-linejoin="round"/>
<path d="M45 42H51" stroke="#54596E" stroke-width="2" stroke-linejoin="round"/>
<path d="M18 50H36" stroke="#54596E" stroke-width="2" stroke-linejoin="round"/>
</svg>

<svg width="60" height="57" fill="none" xmlns="http://www.w3.org/2000/svg"><path d="M22.63 23H16.5v-5h-5v5H5.87C3.46 23 1 24.68 1 26.74V30h26v-3.68c0-1.84-2.23-3.32-4.37-3.32z" fill="#FFF35F" stroke="#54596E" stroke-width="2" stroke-linecap="round" stroke-linejoin="round"/><path d="M23 14.5l.5-6.1A7.18 7.18 0 0 0 16.56 1h-5.12A7.18 7.18 0 0 0 4.5 8.4l.5 6.1" fill="#BFAD88"/><path d="M23 14.5l.5-6.1A7.18 7.18 0 0 0 16.56 1h-5.12A7.18 7.18 0 0 0 4.5 8.4l.5 6.1" stroke="#54596E" stroke-width="2" stroke-linecap="round" stroke-linejoin="round"/><path d="M10.68 9.94c-5 0-5.68-4.33-5.68.48v4a11.86 11.86 0 0 0 2.76 7A8.21 8.21 0 0 0 14 24a8.21 8.21 0 0 0 6.24-2.5 11.86 11.86 0 0 0 2.76-7v-4c0-4.89-7.35-.56-12.32-.56z" fill="#FFD578" stroke="#54596E" stroke-width="2" stroke-linecap="round" stroke-linejoin="round"/><path d="M57.74 27H14.26A1.26 1.26 0 0 0 13 28.26v26.48c0 .696.564 1.26 1.26 1.26h43.48A1.26 1.26 0 0 0 59 54.74V28.26A1.26 1.26 0 0 0 57.74 27z" fill="#A1B7FF" stroke="#54596E" stroke-width="2" stroke-linecap="round" stroke-linejoin="round"/><path d="M51.57 46.14A3.41 3.41 0 0 0 49 47.33a3.43 3.43 0 1 0 0 4.49 3.42 3.42 0 1 0 2.57-5.67v-.01z" fill="#DFDFDF"/><path d="M20.92 31h-1.84A2.08 2.08 0 0 0 17 33.08v1.84A2.08 2.08 0 0 0 19.08 37h1.84A2.08 2.08 0 0 0 23 34.92v-1.84A2.08 2.08 0 0 0 20.92 31z" fill="#FFD578"/><path d="M18 47h11M18 42h6M27 42h6M36 42h6M45 42h6M18 50h18" stroke="#54596E" stroke-width="2" stroke-linejoin="round"/></svg>
